funnel/static/img/hg-logo-grey.svg

<?xml version="1.0" encoding="utf-8"?>
<!-- Generator: Adobe Illustrator 24.2.1, SVG Export Plug-In . SVG Version: 6.00 Build 0)  -->
<svg version="1.1" id="Layer_1" xmlns="http://www.w3.org/2000/svg" xmlns:xlink="http://www.w3.org/1999/xlink" x="0px" y="0px"
	 width="40px" height="30px" viewBox="0 0 40 30" enable-background="new 0 0 40 30" xml:space="preserve">
<path fill="#656565" d="M39.982,14.339c-0.179-2.049-1.662-3.592-3.312-3.448c-0.722,0.063-1.357,0.44-1.827,1.015
	c-0.099,0.121-0.262,0.171-0.41,0.12l-0.016-0.006c-0.077-0.027-0.13-0.098-0.133-0.18c-0.119-3.026-0.467-6.13-0.929-9.155
	c-0.162-1.061-1.005-1.887-2.07-2.024C28.673,0.325,26.073,0.105,23.477,0c-0.421-0.017-0.728,0.392-0.593,0.791l0,0
	c0.028,0.082,0.074,0.155,0.132,0.219c0.648,0.705,1.043,1.634,1.043,2.652c0,2.205-1.847,3.993-4.126,3.993
	s-4.126-1.788-4.126-3.993c0-1.018,0.395-1.947,1.043-2.652c0.058-0.063,0.104-0.137,0.132-0.219l0,0
	C17.117,0.392,16.809-0.017,16.389,0c-2.595,0.105-5.194,0.325-7.806,0.661c-1.064,0.137-1.908,0.963-2.07,2.024
	C6.051,5.711,5.819,8.818,5.7,11.845c-0.003,0.082-0.056,0.153-0.133,0.18h0c-0.148,0.052-0.311,0.002-0.41-0.12
	c-0.47-0.575-1.104-0.952-1.827-1.015c-1.65-0.144-3.133,1.399-3.312,3.448c-0.179,2.049,1.013,3.826,2.663,3.971
	c0.91,0.08,1.769-0.355,2.386-1.103c0.079-0.096,0.21-0.132,0.328-0.091h0c0.165,0.057,0.276,0.21,0.282,0.384
	c0.101,3.248,0.399,6.573,0.895,9.819c0.162,1.059,1.006,1.883,2.069,2.02c2.612,0.336,5.211,0.556,7.806,0.661
	c0.421,0.017,0.728-0.392,0.593-0.791v0c-0.028-0.082-0.074-0.155-0.132-0.219c-0.648-0.705-1.043-1.634-1.043-2.652
	c0-2.205,1.847-3.993,4.126-3.993s4.126,1.788,4.126,3.993c0,1.018-0.395,1.947-1.043,2.652c-0.058,0.063-0.104,0.137-0.132,0.219
	l0,0c-0.135,0.399,0.173,0.808,0.593,0.791c2.596-0.105,5.196-0.325,7.809-0.662c1.063-0.137,1.907-0.961,2.069-2.02
	c0.496-3.244,0.793-6.568,0.895-9.814c0.005-0.174,0.117-0.327,0.282-0.384l0.016-0.006c0.118-0.041,0.249-0.005,0.328,0.091
	c0.618,0.749,1.477,1.183,2.386,1.103C38.969,18.165,40.161,16.387,39.982,14.339z"/>
</svg>

<?xml version="1.0" encoding="UTF-8"?>
<svg width="40px" height="30px" viewBox="0 0 40 30" version="1.1" xmlns="http://www.w3.org/2000/svg" xmlns:xlink="http://www.w3.org/1999/xlink">
    <title>hg-logo-mobile-inactive</title>
    <g id="Comment-v2" stroke="none" stroke-width="1" fill="none" fill-rule="evenodd">
        <g id="hg-logo-mobile-inactive" fill="#4D5763" fill-rule="nonzero">
            <path d="M39.982,14.339 C39.803,12.29 38.32,10.747 36.67,10.891 C35.948,10.954 35.313,11.331 34.843,11.906 C34.744,12.027 34.581,12.077 34.433,12.026 L34.417,12.02 C34.34,11.993 34.287,11.922 34.284,11.84 C34.165,8.814 33.817,5.71 33.355,2.685 C33.193,1.624 32.35,0.798 31.285,0.661 C28.673,0.325 26.073,0.105 23.477,-3.33066907e-16 C23.056,-0.017 22.749,0.392 22.884,0.791 L22.884,0.791 C22.912,0.873 22.958,0.946 23.016,1.01 C23.664,1.715 24.059,2.644 24.059,3.662 C24.059,5.867 22.212,7.655 19.933,7.655 C17.654,7.655 15.807,5.867 15.807,3.662 C15.807,2.644 16.202,1.715 16.85,1.01 C16.908,0.947 16.954,0.873 16.982,0.791 L16.982,0.791 C17.117,0.392 16.809,-0.017 16.389,-3.33066907e-16 C13.794,0.105 11.195,0.325 8.583,0.661 C7.519,0.798 6.675,1.624 6.513,2.685 C6.051,5.711 5.819,8.818 5.7,11.845 C5.697,11.927 5.644,11.998 5.567,12.025 L5.567,12.025 C5.419,12.077 5.256,12.027 5.157,11.905 C4.687,11.33 4.053,10.953 3.33,10.89 C1.68,10.746 0.197,12.289 0.018,14.338 C-0.161,16.387 1.031,18.164 2.681,18.309 C3.591,18.389 4.45,17.954 5.067,17.206 C5.146,17.11 5.277,17.074 5.395,17.115 L5.395,17.115 C5.56,17.172 5.671,17.325 5.677,17.499 C5.778,20.747 6.076,24.072 6.572,27.318 C6.734,28.377 7.578,29.201 8.641,29.338 C11.253,29.674 13.852,29.894 16.447,29.999 C16.868,30.016 17.175,29.607 17.04,29.208 L17.04,29.208 C17.012,29.126 16.966,29.053 16.908,28.989 C16.26,28.284 15.865,27.355 15.865,26.337 C15.865,24.132 17.712,22.344 19.991,22.344 C22.27,22.344 24.117,24.132 24.117,26.337 C24.117,27.355 23.722,28.284 23.074,28.989 C23.016,29.052 22.97,29.126 22.942,29.208 L22.942,29.208 C22.807,29.607 23.115,30.016 23.535,29.999 C26.131,29.894 28.731,29.674 31.344,29.337 C32.407,29.2 33.251,28.376 33.413,27.317 C33.909,24.073 34.206,20.749 34.308,17.503 C34.313,17.329 34.425,17.176 34.59,17.119 L34.606,17.113 C34.724,17.072 34.855,17.108 34.934,17.204 C35.552,17.953 36.411,18.387 37.32,18.307 C38.969,18.165 40.161,16.387 39.982,14.339 Z" id="Path"></path>
        </g>
    </g>
</svg>
